public/logo.svg

<svg width="116" height="69" viewBox="0 0 116 69" fill="none" xmlns="http://www.w3.org/2000/svg">
<path d="M4 41.5C4 20.8572 26.6381 16 48.5 16C70.3619 16 93 20.8572 93 41.5C93 62.1428 70.3621 67 48.5 67C26.6379 67 4 62.1428 4 41.5Z" fill="#EEECED"/>
<path d="M48.2432 16C28.1845 16 7.47937 20.1236 4 36.8253C5.32641 37.0506 6.81822 37.1594 8.52448 37.1594C10.1342 37.1594 11.9915 37.0637 14.1976 36.867C17.2942 36.5933 20.7535 36.1513 24.4156 35.6833C26.6858 35.3931 29.0334 35.093 31.435 34.8149C36.0902 34.2739 42.2078 33.6529 48.2432 33.6529C54.2787 33.6529 60.396 34.2739 65.054 34.8154C67.4529 35.0932 69.8004 35.3934 72.0709 35.6835C75.733 36.1516 79.1923 36.5938 82.2838 36.8667C82.2865 36.867 82.2893 36.8672 82.292 36.8674C82.7634 36.9095 83.1631 37.2404 83.2908 37.7047C83.3351 37.8655 83.3812 38.0264 83.4291 38.1869C84.8944 43.1122 87.8744 47.3114 91.6966 50C92.5426 47.6338 93 44.9773 93 41.9976C93 20.952 70.2312 16 48.2432 16Z" fill="#D4D2D3"/>
<path d="M114.139 27.6893C112.61 24.3459 109.193 21.5139 104.77 20.3736C99.7842 19.0881 94.8773 20.3023 91.9743 23.1479C89.2533 26.168 88.2467 31.122 89.7409 36.049C91.066 40.4196 94.0392 43.7152 97.444 45.102C98.2317 45.423 99.1416 45.1471 99.6185 44.4427C101.68 41.3984 102.322 37.0067 100.997 32.6361C100.866 32.2054 100.719 31.786 100.557 31.3771C100.972 31.5212 101.398 31.6508 101.834 31.7631C106.256 32.9034 110.617 32.0769 113.572 29.8897C114.256 29.3836 114.493 28.463 114.139 27.6893Z" fill="#FB8D4B"/>
<path d="M13.8941 8.04138C4.89138 12.8388 1.69775 19.7875 1.69775 26.8064C1.69775 30.2332 6.55208 30.6063 13.8963 29.964L19.3409 14.8407L13.8941 8.04138Z" fill="#FB8D4B"/>
<path d="M82.5065 8.00225C82.5074 8.00427 82.5095 8.00899 82.5113 8.01281L82.5041 8L76 14.7451L82.5041 29.7426C90.0276 30.3796 95 30.0096 95 26.6113C95 19.6507 91.7281 12.7601 82.5065 8.00225Z" fill="#E86D24"/>
<path d="M82.9373 8.42333C82.935 8.4211 82.935 8.42109 82.935 8.42109C78.0684 5.92339 71.5445 4.01549 62.966 3L62.9683 3.00223L57 13.0894L65.6089 28.05C72.0216 28.7513 78.0244 29.5906 82.9352 30C87.5331 18.3189 83.0298 8.6258 82.9373 8.42333Z" fill="#FB8D4B"/>
<path d="M63.3377 2.82565L63.3354 2.8234C58.8701 2.28866 53.8432 2 48.2023 2L39 16.5441L48.2023 26.8366C54.1285 26.8366 60.2135 27.3624 65.9625 28C71.762 15.2886 63.3377 2.82565 63.3377 2.82565Z" fill="#E86D24"/>
<path d="M33.0966 2.82363L33.0944 2.82587L19 15.0001L30.5094 28C36.1713 27.3624 42.1637 26.8366 48 26.8366V2C42.4447 2.00022 37.4944 2.28889 33.0966 2.82363Z" fill="#FB8D4B"/>
<path d="M32.9978 3.00245C32.9978 3.00245 24.921 15.4026 30.4813 28.05C24.3696 28.7513 18.6484 29.5906 13.968 30C9.58567 18.319 13.8777 8.62598 13.9658 8.42328C13.968 8.42105 13.968 8.42105 13.968 8.42105C18.6062 5.92337 24.824 4.01549 33 3L32.9978 3.00245Z" fill="#E86D24"/>
<path d="M34 44.3756V41.6244C34 40.7273 33.3284 40 32.5 40C31.6716 40 31 40.7273 31 41.6244V44.3756C31 45.2727 31.6716 46 32.5 46C33.3284 46 34 45.2727 34 44.3756Z" fill="black"/>
<path d="M66 44.3756V41.6244C66 40.7273 65.1045 40 64 40C62.8955 40 62 40.7273 62 41.6244V44.3756C62 45.2727 62.8955 46 64 46C65.1045 46 66 45.2727 66 44.3756Z" fill="black"/>
<path d="M48.4999 48C50.8616 48 53.0782 47.1058 54.5815 45.5468C55.197 44.9081 55.1252 43.9379 54.4211 43.3797C53.7171 42.8215 52.6469 42.8866 52.0314 43.5251C51.1717 44.4169 49.8845 44.9284 48.5001 44.9284C47.1156 44.9284 45.8285 44.4169 44.9688 43.5251C44.3532 42.8864 43.2833 42.8213 42.579 43.3795C41.8747 43.9379 41.8029 44.9079 42.4187 45.5466C43.9215 47.1058 46.1381 48 48.4999 48Z" fill="black"/>
<path d="M4.33641 31.5943C2.88505 34.6423 2.14872 38.0883 2.14872 41.8756C2.14872 49.7272 5.25489 55.995 11.3814 60.5055C12.1379 61.0625 13.2013 60.8988 13.7567 60.1395C14.3117 59.3803 14.1484 58.3134 13.3919 57.7563C8.11298 53.8701 5.54693 48.6753 5.54693 41.8756C5.54693 38.1583 6.35236 34.8469 7.94283 32.0172C9.24239 32.0542 10.752 32.009 12.5504 31.8817C18.7326 31.4436 24.87 30.4745 31.0252 29.771C35.7815 29.2265 42.043 28.6018 48.2947 28.6018C54.0626 28.6018 59.8383 29.1156 65.5652 29.7712C71.2258 30.4193 76.8681 31.2697 82.5458 31.7637C84.1435 31.9033 85.7487 32.0151 87.3532 32.0269C87.37 32.6016 87.4164 33.1813 87.4923 33.7635C87.4935 33.7726 87.4948 33.7817 87.4962 33.7907C87.906 36.8569 89.1252 39.8912 91.0276 42.3341C91.0315 42.3389 91.0349 42.3441 91.0387 42.3491C90.8869 50.8401 86.621 56.8613 78.0102 60.747C70.8889 63.9604 60.8914 65.5901 48.2954 65.5901C36.076 65.5901 26.2924 64.0543 19.2161 61.0252C18.3527 60.6558 17.3547 61.0582 16.9863 61.9245C16.6181 62.7906 17.0194 63.7922 17.8824 64.1616C25.3825 67.3721 35.6149 69 48.2952 69C61.3749 69 71.8414 67.2696 79.404 63.8568C88.1799 59.8968 93.1489 53.6978 94.2197 45.4018C95.035 45.9779 95.8989 46.4632 96.8043 46.8333C98.2831 47.4378 100.106 46.9142 101.027 45.5487C103.181 42.3566 103.894 38.0854 103.031 33.8619C107.273 34.5491 111.496 33.6546 114.584 31.3611C115.907 30.3786 116.37 28.5757 115.686 27.074C113.884 23.1212 109.963 20.0251 105.196 18.7918C101.731 17.8955 98.2332 18.0719 95.2589 19.1933C93.3381 13.9619 89.3932 9.7211 83.5035 6.56947C83.4996 6.56742 83.4962 6.56447 83.4921 6.56219C78.2853 3.77496 71.5192 1.85247 63.3815 0.847924C58.8276 0.285294 53.7526 0 48.295 0C42.8389 0 37.7637 0.285294 33.2084 0.847924C25.0707 1.85225 18.3047 3.77473 13.0978 6.56242C13.0935 6.5647 13.0894 6.56788 13.0851 6.57038C2.27061 12.3576 0 20.8178 0 26.8967C0 28.1945 0.481445 29.3231 1.39223 30.1606C2.10273 30.8141 3.05769 31.2874 4.33641 31.5943ZM49.9942 3.4192C54.3442 3.46853 58.4207 3.70835 62.1443 4.13436C63.4241 6.40466 67.321 14.2458 65.6229 22.8746C65.4029 23.9926 65.0935 25.0921 64.6992 26.1608C64.6897 26.1869 64.6807 26.2129 64.6709 26.239C60.373 25.7637 56.06 25.3874 51.7371 25.2497C51.1565 25.231 50.5753 25.2156 49.9942 25.206V3.4192ZM81.3536 9.29055C82.4237 12.0644 82.8904 15.0603 82.9899 18.0232C82.9905 18.043 82.9914 18.0626 82.9919 18.0824C83.0961 21.485 82.6158 24.9182 81.5607 28.154C81.551 28.1838 81.5412 28.2136 81.5315 28.2436C81.2514 28.2161 80.6023 28.1494 80.5616 28.1451C76.8622 27.7532 73.1745 27.2554 69.4824 26.8023C69.0368 26.7478 68.5891 26.6932 68.1382 26.6391C68.1412 26.6305 68.1434 26.6218 68.1464 26.6132C71.1875 17.5888 68.334 9.09846 66.2734 4.70518C72.2519 5.68449 77.3108 7.22121 81.3536 9.29055ZM104.347 22.0935C108.132 23.0726 111.215 25.4645 112.595 28.492C112.615 28.5354 112.601 28.5918 112.562 28.6202C109.896 30.6007 106.044 31.1986 102.259 30.2195C101.882 30.1217 101.497 30.0051 101.116 29.8723C99.7664 29.4029 98.455 30.7794 98.9781 32.109C99.1263 32.4857 99.2589 32.8667 99.3721 33.2411C100.506 36.994 100.073 40.8803 98.2128 43.6367C98.1861 43.6762 98.1306 43.6933 98.0864 43.6751C92.1203 41.2454 89.3209 33.2613 91.4626 27.3925C91.4705 27.3706 91.4791 27.349 91.4873 27.3272C93.4104 22.1572 99.4893 20.8369 104.347 22.0935ZM92.2232 20.8034C91.7175 21.1653 90.6776 22.1274 90.6187 22.1944C89.0744 23.9573 88.0558 26.1808 87.6077 28.6189C87.5925 28.6189 85.8797 28.5855 85.0402 28.5307C85.0298 28.53 85.0192 28.5293 85.0088 28.5286C85.014 28.5113 85.0185 28.4943 85.0237 28.477C85.6832 26.2852 86.1148 24.0249 86.3058 21.743C86.5779 18.4931 86.3686 15.1942 85.676 12.0071C85.6744 12 85.673 11.9925 85.6714 11.9855C88.8696 14.4342 91.0639 17.3858 92.2232 20.8034ZM46.5958 25.206C46.4437 25.2085 46.2924 25.2124 46.1406 25.2156C42.241 25.3006 38.345 25.5377 34.4679 25.9701C33.6178 26.0551 32.7684 26.1449 31.9193 26.2388C31.9113 26.2174 31.9039 26.196 31.8959 26.1747C29.7012 20.2535 30.3927 13.6541 32.681 7.87113C33.1878 6.59061 33.768 5.33327 34.4457 4.13436C38.169 3.70835 42.2458 3.46853 46.5955 3.4192V25.206H46.5958ZM30.3068 4.72609C28.265 9.03936 27.0806 13.7982 27.1161 18.5854C27.1361 21.2713 27.5588 23.9501 28.4057 26.4995C28.4211 26.5461 28.4345 26.5927 28.4504 26.6393C24.6815 27.0924 20.9187 27.6075 17.1456 28.0235C16.4503 28.1013 15.7547 28.1751 15.0585 28.2436C15.0494 28.2161 15.0406 28.1888 15.0315 28.1613C13.473 23.3706 13.1723 18.1965 14.1418 13.2528C14.5095 11.3779 14.9706 9.99958 15.2377 9.28805C19.2793 7.22121 24.3383 5.68449 30.3168 4.7054C30.3134 4.712 30.3102 4.71927 30.3068 4.72609ZM10.9199 11.9796C10.918 11.9873 10.9165 11.9955 10.9149 12.0034C9.71817 17.427 9.97011 23.1637 11.5665 28.477C11.5715 28.4938 11.576 28.5104 11.5812 28.5273C7.25159 28.7807 4.60058 28.4859 3.68844 27.6471C3.51421 27.487 3.39844 27.2981 3.39844 26.8969C3.39844 20.7925 5.92438 15.7909 10.9199 11.9796Z" fill="black"/>
</svg>

<svg xmlns="http://www.w3.org/2000/svg" width="116" height="69" fill="none"><path fill="#EEECED" d="M4 41.5C4 20.857 26.638 16 48.5 16S93 20.857 93 41.5 70.362 67 48.5 67 4 62.143 4 41.5Z"/><path fill="#D4D2D3" d="M48.243 16C28.184 16 7.48 20.124 4 36.825c1.326.226 2.818.334 4.524.334 1.61 0 3.468-.095 5.674-.292 3.096-.274 6.555-.716 10.218-1.184 2.27-.29 4.617-.59 7.019-.868 4.655-.541 10.773-1.162 16.808-1.162 6.036 0 12.153.62 16.811 1.162 2.399.278 4.746.578 7.017.869 3.662.468 7.121.91 10.213 1.183h.008c.471.043.871.373.999.838.044.16.09.321.138.482 1.465 4.925 4.445 9.124 8.268 11.813.846-2.366 1.303-5.023 1.303-8.002C93 20.952 70.231 16 48.243 16Z"/><path fill="#FB8D4B" d="M114.139 27.69c-1.529-3.344-4.946-6.176-9.369-7.316-4.986-1.286-9.893-.072-12.796 2.774-2.72 3.02-3.727 7.974-2.233 12.901 1.325 4.37 4.298 7.666 7.703 9.053a1.807 1.807 0 0 0 2.174-.66c2.062-3.044 2.704-7.435 1.379-11.806a16.27 16.27 0 0 0-.44-1.259c.415.144.841.274 1.277.386 4.422 1.14 8.783.314 11.738-1.873a1.807 1.807 0 0 0 .567-2.2ZM13.894 8.041C4.891 12.84 1.698 19.788 1.698 26.806c0 3.427 4.854 3.8 12.198 3.158l5.445-15.123-5.447-6.8Z"/><path fill="#E86D24" d="m82.507 8.002.004.01L82.504 8 76 14.745l6.504 14.998C90.028 30.38 95 30.01 95 26.61c0-6.96-3.272-13.85-12.493-18.609Z"/><path fill="#FB8D4B" d="m82.937 8.423-.002-.002C78.068 5.923 71.545 4.015 62.966 3l.002.002L57 13.09l8.609 14.961c6.413.701 12.415 1.54 17.326 1.95 4.598-11.681.095-21.374.002-21.577Z"/><path fill="#E86D24" d="m63.338 2.826-.003-.003C58.87 2.29 53.843 2 48.202 2L39 16.544l9.202 10.293c5.927 0 12.012.525 17.76 1.163 5.8-12.711-2.624-25.174-2.624-25.174Z"/><path fill="#FB8D4B" d="m33.097 2.824-.003.002L19 15l11.51 13c5.661-.638 11.654-1.163 17.49-1.163V2c-5.555 0-10.506.289-14.903.824Z"/><path fill="#E86D24" d="M32.998 3.002s-8.077 12.4-2.517 25.048c-6.111.701-11.833 1.54-16.513 1.95-4.382-11.681-.09-21.374-.002-21.577l.002-.002C18.606 5.923 24.824 4.015 33 3l-.002.002Z"/><path fill="#000" d="M34 44.376v-2.752c0-.897-.672-1.624-1.5-1.624s-1.5.727-1.5 1.624v2.752c0 .897.672 1.624 1.5 1.624s1.5-.727 1.5-1.624ZM66 44.376v-2.752c0-.897-.895-1.624-2-1.624s-2 .727-2 1.624v2.752c0 .897.895 1.624 2 1.624s2-.727 2-1.624ZM48.5 48c2.362 0 4.578-.894 6.081-2.453.616-.639.544-1.61-.16-2.167-.704-.559-1.774-.493-2.39.145-.86.892-2.146 1.403-3.53 1.403-1.385 0-2.672-.511-3.532-1.403-.616-.639-1.686-.704-2.39-.145-.704.558-.776 1.528-.16 2.167 1.503 1.559 3.72 2.453 6.08 2.453Z"/><path fill="#000" d="M4.336 31.594C2.885 34.642 2.15 38.088 2.15 41.876c0 7.851 3.106 14.119 9.232 18.63.757.556 1.82.393 2.376-.367a1.709 1.709 0 0 0-.365-2.383c-5.279-3.886-7.845-9.08-7.845-15.88 0-3.718.805-7.03 2.396-9.859 1.3.037 2.809-.008 4.607-.135 6.183-.438 12.32-1.408 18.475-2.111 4.757-.544 11.018-1.17 17.27-1.17 5.768 0 11.543.515 17.27 1.17 5.66.648 11.303 1.499 16.98 1.993 1.599.14 3.204.251 4.808.263a17.36 17.36 0 0 0 .143 1.764c.41 3.066 1.63 6.1 3.532 8.543l.01.015c-.151 8.491-4.417 14.512-13.028 18.398-7.121 3.213-17.119 4.843-29.715 4.843-12.219 0-22.003-1.536-29.079-4.565a1.697 1.697 0 0 0-2.23.9 1.707 1.707 0 0 0 .896 2.237C25.382 67.372 35.615 69 48.295 69c13.08 0 23.546-1.73 31.109-5.143 8.776-3.96 13.745-10.16 14.816-18.455a13.04 13.04 0 0 0 2.584 1.431c1.48.605 3.302.081 4.223-1.284 2.154-3.192 2.867-7.464 2.004-11.687 4.242.687 8.465-.207 11.553-2.5a3.54 3.54 0 0 0 1.102-4.288c-1.802-3.953-5.723-7.049-10.49-8.282-3.465-.897-6.963-.72-9.937.401-1.92-5.231-5.866-9.472-11.755-12.624l-.012-.007C78.285 3.775 71.52 1.852 63.382.848 58.828.285 53.752 0 48.294 0c-5.456 0-10.531.285-15.087.848-8.137 1.004-14.903 2.927-20.11 5.714l-.013.008C2.271 12.358 0 20.818 0 26.897c0 1.298.481 2.426 1.392 3.264.71.653 1.666 1.126 2.944 1.433ZM49.994 3.42c4.35.05 8.427.29 12.15.715 1.28 2.27 5.177 10.112 3.479 18.74a21.477 21.477 0 0 1-.924 3.287l-.028.078c-4.298-.475-8.611-.852-12.934-.99-.58-.018-1.162-.033-1.743-.043V3.419Zm31.36 5.872c1.07 2.773 1.536 5.77 1.636 8.732l.002.06a29.672 29.672 0 0 1-1.431 10.071l-.03.09-.97-.099c-3.699-.392-7.387-.89-11.079-1.343l-1.344-.163.008-.026c3.041-9.024.188-17.515-1.873-21.908 5.979.98 11.038 2.516 15.08 4.586Zm22.993 12.802c3.785.98 6.868 3.372 8.248 6.399.02.043.006.1-.033.128-2.666 1.98-6.518 2.579-10.303 1.6a14.72 14.72 0 0 1-1.143-.348c-1.35-.47-2.661.907-2.138 2.237.148.377.28.758.394 1.132 1.134 3.753.701 7.64-1.16 10.396a.108.108 0 0 1-.126.038c-5.966-2.43-8.765-10.414-6.623-16.282l.024-.066c1.923-5.17 8.002-6.49 12.86-5.234Zm-12.124-1.29c-.505.362-1.545 1.324-1.604 1.391-1.545 1.763-2.563 3.987-3.011 6.425-.016 0-1.728-.034-2.568-.088l-.031-.002.015-.052a33 33 0 0 0 .652-16.47l-.005-.021c3.199 2.448 5.393 5.4 6.552 8.817Zm-45.627 4.403-.455.01c-3.9.085-7.796.322-11.673.754-.85.085-1.7.175-2.549.269l-.023-.064c-2.195-5.922-1.503-12.52.785-18.304a30.094 30.094 0 0 1 1.765-3.737c3.723-.426 7.8-.665 12.15-.715v21.787Zm-16.29-20.48c-2.041 4.313-3.225 9.072-3.19 13.86a25.73 25.73 0 0 0 1.29 7.914l.044.14c-3.768.452-7.531.968-11.304 1.383-.696.078-1.391.152-2.088.22l-.027-.082a29.832 29.832 0 0 1-.89-14.908c.368-1.875.83-3.253 1.097-3.965 4.041-2.067 9.1-3.604 15.079-4.583l-.01.021ZM10.92 11.98l-.005.023c-1.197 5.424-.945 11.16.652 16.474l.014.05c-4.33.254-6.98-.041-7.893-.88-.174-.16-.29-.349-.29-.75 0-6.104 2.526-11.106 7.522-14.917Z"/></svg>
